X: 3638
T: Bill Powrie's
R: reel
M: 4/4
K: Dmajor
|:D2DF AFFA|d2Ad fede|dB(3(BBB) dA(3(AAA)|ceAc eAce|
D2DF AFFA|d2Ad fede|dB(3(BBB) dA(3(AAA)|1 cdec dBAF:|2 cdec d2de||
|:f3g fede|dB(3(BBB) dA(3(AAA)|dB(3(BBB) dA(3(AAA)|ceAc eAce|
f3g fede|dB(3(BBB) dA(3(AAA)|dB(3(BBB) dA(3(AAA)|1 ceAc d2de:|2 ceAc dBAF|D4 z4||

